; LightBurn 1.5.06
; GRBL device profile, absolute coords
; Bounds: X11.63 Y10.38 to X165.38 Y155.38
G00 G17 G40 G21 G54
G90
M4
; Cut @ 2000 mm/min, 30.0% power
M8
G0 X12.458Y6.250
; Layer C00
G1 X20.823Y11.080S300F2000
G1 X17.288Y14.615
G1 X12.458Y6.250
G0 X12.458Y6.250
G1 X20.823Y11.080S300F2000
G1 X17.288Y14.615
G1 X12.458Y6.250
G0 X166.208Y109.082
; Layer C00
G1 X153.839Y109.082S300F2000
G1 X160.024Y100.250
G1 X166.208Y109.082
G0 X166.208Y109.082
G1 X153.839Y109.082S300F2000
G1 X160.024Y100.250
G1 X166.208Y109.082
G0 X153.839Y86.418
; Layer C00
G1 X166.208Y86.418S300F2000
G1 X160.024Y95.250
G1 X153.839Y86.418
G0 X153.839Y86.418
G1 X166.208Y86.418S300F2000
G1 X160.024Y95.250
G1 X153.839Y86.418
G0 X47.764Y109.082
; Layer C00
G1 X35.395Y109.082S300F2000
G1 X41.580Y100.250
G1 X47.764Y109.082
G0 X47.764Y109.082
G1 X35.395Y109.082S300F2000
G1 X41.580Y100.250
G1 X47.764Y109.082
G0 X35.395Y86.418
; Layer C00
G1 X47.764Y86.418S300F2000
G1 X41.580Y95.250
G1 X35.395Y86.418
G0 X35.395Y86.418
G1 X47.764Y86.418S300F2000
G1 X41.580Y95.250
G1 X35.395Y86.418
G0 X87.264Y109.082
; Layer C00
G1 X74.839Y109.082S300F2000
G1 X81.024Y100.250
G1 X81.080Y100.250
G1 X87.264Y109.082
G0 X87.264Y109.082
G1 X74.839Y109.082S300F2000
G1 X81.024Y100.250
G1 X81.080Y100.250
G1 X87.264Y109.082
G0 X74.839Y86.418
; Layer C00
G1 X87.264Y86.418S300F2000
G1 X81.080Y95.250
G1 X81.024Y95.250
G1 X74.839Y86.418
G0 X74.839Y86.418
G1 X87.264Y86.418S300F2000
G1 X81.080Y95.250
G1 X81.024Y95.250
G1 X74.839Y86.418
G0 X107.014Y109.082
; Layer C00
G1 X94.589Y109.082S300F2000
G1 X100.774Y100.250
G1 X100.830Y100.250
G1 X107.014Y109.082
G0 X107.014Y109.082
G1 X94.589Y109.082S300F2000
G1 X100.774Y100.250
G1 X100.830Y100.250
G1 X107.014Y109.082
G0 X94.589Y86.418
; Layer C00
G1 X107.014Y86.418S300F2000
G1 X100.830Y95.250
G1 X100.774Y95.250
G1 X94.589Y86.418
G0 X94.589Y86.418
G1 X107.014Y86.418S300F2000
G1 X100.830Y95.250
G1 X100.774Y95.250
G1 X94.589Y86.418
G0 X126.764Y109.082
; Layer C00
G1 X114.339Y109.082S300F2000
G1 X120.524Y100.250
G1 X120.580Y100.250
G1 X126.764Y109.082
G0 X126.764Y109.082
G1 X114.339Y109.082S300F2000
G1 X120.524Y100.250
G1 X120.580Y100.250
G1 X126.764Y109.082
G0 X114.339Y86.418
; Layer C00
G1 X126.764Y86.418S300F2000
G1 X120.580Y95.250
G1 X120.524Y95.250
G1 X114.339Y86.418
G0 X114.339Y86.418
G1 X126.764Y86.418S300F2000
G1 X120.580Y95.250
G1 X120.524Y95.250
G1 X114.339Y86.418
G0 X146.514Y109.082
; Layer C00
G1 X134.089Y109.082S300F2000
G1 X140.274Y100.250
G1 X140.330Y100.250
G1 X146.514Y109.082
G0 X146.514Y109.082
G1 X134.089Y109.082S300F2000
G1 X140.274Y100.250
G1 X140.330Y100.250
G1 X146.514Y109.082
G0 X134.089Y86.418
; Layer C00
G1 X146.514Y86.418S300F2000
G1 X140.330Y95.250
G1 X140.274Y95.250
G1 X134.089Y86.418
G0 X134.089Y86.418
G1 X146.514Y86.418S300F2000
G1 X140.330Y95.250
G1 X140.274Y95.250
G1 X134.089Y86.418
G0 X67.514Y109.082
; Layer C00
G1 X55.089Y109.082S300F2000
G1 X61.273Y100.250
G1 X61.330Y100.250
G1 X67.514Y109.082
G0 X67.514Y109.082
G1 X55.089Y109.082S300F2000
G1 X61.273Y100.250
G1 X61.330Y100.250
G1 X67.514Y109.082
G0 X55.089Y86.418
; Layer C00
G1 X67.514Y86.418S300F2000
G1 X61.330Y95.250
G1 X61.273Y95.250
G1 X55.089Y86.418
G0 X55.089Y86.418
G1 X67.514Y86.418S300F2000
G1 X61.330Y95.250
G1 X61.273Y95.250
G1 X55.089Y86.418
G0 X43.893Y97.176
; Layer C00
G1 X50.607Y87.587S300F2000
G1 X50.769Y87.408
G1 X50.965Y87.274
G1 X51.187Y87.190
G1 X51.427Y87.161
G1 X51.666Y87.190
G1 X51.888Y87.274
G1 X52.085Y87.408
G1 X52.246Y87.587
G1 X58.960Y97.176
G1 X59.096Y97.452
G1 X59.141Y97.750
G1 X59.096Y98.047
G1 X58.960Y98.324
G1 X52.246Y107.913
G1 X52.085Y108.092
G1 X51.888Y108.226
G1 X51.666Y108.310
G1 X51.427Y108.339
G1 X51.187Y108.310
G1 X50.965Y108.226
G1 X50.769Y108.092
G1 X50.607Y107.913
G1 X43.893Y98.324
G1 X43.758Y98.047
G1 X43.712Y97.750
G1 X43.758Y97.452
G1 X43.893Y97.176
G0 X43.893Y97.176
G1 X50.607Y87.587S300F2000
G1 X50.769Y87.408
G1 X50.965Y87.274
G1 X51.187Y87.190
G1 X51.427Y87.161
G1 X51.666Y87.190
G1 X51.888Y87.274
G1 X52.085Y87.408
G1 X52.246Y87.587
G1 X58.960Y97.176
G1 X59.096Y97.452
G1 X59.141Y97.750
G1 X59.096Y98.047
G1 X58.960Y98.324
G1 X52.246Y107.913
G1 X52.085Y108.092
G1 X51.888Y108.226
G1 X51.666Y108.310
G1 X51.427Y108.339
G1 X51.187Y108.310
G1 X50.965Y108.226
G1 X50.769Y108.092
G1 X50.607Y107.913
G1 X43.893Y98.324
G1 X43.758Y98.047
G1 X43.712Y97.750
G1 X43.758Y97.452
G1 X43.893Y97.176
G0 X63.442Y97.463
; Layer C00
G1 X70.767Y87.003S300F2000
G1 X70.848Y86.913
G1 X70.946Y86.846
G1 X71.057Y86.804
G1 X71.177Y86.789
G1 X71.296Y86.804
G1 X71.408Y86.846
G1 X71.506Y86.913
G1 X71.586Y87.003
G1 X78.911Y97.463
G1 X78.979Y97.601
G1 X79.001Y97.750
G1 X78.979Y97.899
G1 X78.911Y98.037
G1 X71.586Y108.497
G1 X71.506Y108.587
G1 X71.408Y108.654
G1 X71.296Y108.696
G1 X71.177Y108.711
G1 X71.057Y108.696
G1 X70.946Y108.654
G1 X70.848Y108.587
G1 X70.767Y108.497
G1 X63.442Y98.037
G1 X63.375Y97.899
G1 X63.352Y97.750
G1 X63.375Y97.601
G1 X63.442Y97.463
G0 X63.442Y97.463
G1 X70.767Y87.003S300F2000
G1 X70.848Y86.913
G1 X70.946Y86.846
G1 X71.057Y86.804
G1 X71.177Y86.789
G1 X71.296Y86.804
G1 X71.408Y86.846
G1 X71.506Y86.913
G1 X71.586Y87.003
G1 X78.911Y97.463
G1 X78.979Y97.601
G1 X79.001Y97.750
G1 X78.979Y97.899
G1 X78.911Y98.037
G1 X71.586Y108.497
G1 X71.506Y108.587
G1 X71.408Y108.654
G1 X71.296Y108.696
G1 X71.177Y108.711
G1 X71.057Y108.696
G1 X70.946Y108.654
G1 X70.848Y108.587
G1 X70.767Y108.497
G1 X63.442Y98.037
G1 X63.375Y97.899
G1 X63.352Y97.750
G1 X63.375Y97.601
G1 X63.442Y97.463
G0 X83.092Y97.607
; Layer C00
G1 X90.722Y86.710S300F2000
G1 X90.811Y86.632
G1 X90.927Y86.603
G1 X91.042Y86.632
G1 X91.131Y86.710
G1 X98.761Y97.607
G1 X98.795Y97.676
G1 X98.806Y97.750
G1 X98.795Y97.824
G1 X98.761Y97.893
G1 X91.131Y108.790
G1 X91.042Y108.868
G1 X90.927Y108.897
G1 X90.811Y108.868
G1 X90.722Y108.790
G1 X83.092Y97.893
G1 X83.058Y97.824
G1 X83.047Y97.750
G1 X83.058Y97.676
G1 X83.092Y97.607
G0 X83.092Y97.607
G1 X90.722Y86.710S300F2000
G1 X90.811Y86.632
G1 X90.927Y86.603
G1 X91.042Y86.632
G1 X91.131Y86.710
G1 X98.761Y97.607
G1 X98.795Y97.676
G1 X98.806Y97.750
G1 X98.795Y97.824
G1 X98.761Y97.893
G1 X91.131Y108.790
G1 X91.042Y108.868
G1 X90.927Y108.897
G1 X90.811Y108.868
G1 X90.722Y108.790
G1 X83.092Y97.893
G1 X83.058Y97.824
G1 X83.047Y97.750
G1 X83.058Y97.676
G1 X83.092Y97.607
G0 X102.769Y97.750
; Layer C00
G1 X102.792Y97.678S300F2000
G1 X110.574Y86.564
G1 X110.619Y86.525
G1 X110.677Y86.511
G1 X110.734Y86.525
G1 X110.779Y86.564
G1 X118.561Y97.678
G1 X118.584Y97.750
G1 X118.561Y97.822
G1 X110.779Y108.936
G1 X110.734Y108.975
G1 X110.677Y108.989
G1 X110.619Y108.975
G1 X110.574Y108.936
G1 X102.792Y97.822
G1 X102.769Y97.750
G0 X102.769Y97.750
G1 X102.792Y97.678S300F2000
G1 X110.574Y86.564
G1 X110.619Y86.525
G1 X110.677Y86.511
G1 X110.734Y86.525
G1 X110.779Y86.564
G1 X118.561Y97.678
G1 X118.584Y97.750
G1 X118.561Y97.822
G1 X110.779Y108.936
G1 X110.734Y108.975
G1 X110.677Y108.989
G1 X110.619Y108.975
G1 X110.574Y108.936
G1 X102.792Y97.822
G1 X102.769Y97.750
G0 X122.514Y97.750
; Layer C00
G1 X122.532Y97.693S300F2000
G1 X130.345Y86.535
G1 X130.380Y86.503
G1 X130.427Y86.492
G1 X130.473Y86.503
G1 X130.509Y86.535
G1 X138.322Y97.693
G1 X138.340Y97.750
G1 X138.322Y97.807
G1 X130.509Y108.965
G1 X130.473Y108.997
G1 X130.427Y109.008
G1 X130.380Y108.997
G1 X130.345Y108.965
G1 X122.532Y97.807
G1 X122.514Y97.750
G0 X122.514Y97.750
G1 X122.532Y97.693S300F2000
G1 X130.345Y86.535
G1 X130.380Y86.503
G1 X130.427Y86.492
G1 X130.473Y86.503
G1 X130.509Y86.535
G1 X138.322Y97.693
G1 X138.340Y97.750
G1 X138.322Y97.807
G1 X130.509Y108.965
G1 X130.473Y108.997
G1 X130.427Y109.008
G1 X130.380Y108.997
G1 X130.345Y108.965
G1 X122.532Y97.807
G1 X122.514Y97.750
G0 X142.242Y97.750
; Layer C00
G1 X150.177Y86.418S300F2000
G1 X158.112Y97.750
G1 X150.177Y109.082
G1 X142.242Y97.750
G0 X142.242Y97.750
G1 X150.177Y86.418S300F2000
G1 X158.112Y97.750
G1 X150.177Y109.082
G1 X142.242Y97.750
G0 X143.332Y149.250
; Layer C00
G1 X143.332Y130.750S300F2000
G1 X143.373Y130.347
G1 X143.489Y129.972
G1 X143.674Y129.632
G1 X143.918Y129.336
G1 X144.214Y129.092
G1 X144.554Y128.907
G1 X144.929Y128.791
G1 X145.332Y128.750
G1 X148.832Y128.750
G1 X149.235Y128.791
G1 X149.610Y128.907
G1 X149.950Y129.092
G1 X150.246Y129.336
G1 X150.490Y129.632
G1 X150.675Y129.972
G1 X150.791Y130.347
G1 X150.832Y130.750
G1 X150.832Y149.250
G1 X150.791Y149.653
G1 X150.675Y150.028
G1 X150.490Y150.368
G1 X150.246Y150.664
G1 X149.950Y150.908
G1 X149.610Y151.093
G1 X149.235Y151.209
G1 X148.832Y151.250
G1 X145.332Y151.250
G1 X144.929Y151.209
G1 X144.554Y151.093
G1 X144.214Y150.908
G1 X143.918Y150.664
G1 X143.674Y150.368
G1 X143.489Y150.028
G1 X143.373Y149.653
G1 X143.332Y149.250
G0 X143.332Y149.250
G1 X143.332Y130.750S300F2000
G1 X143.373Y130.347
G1 X143.489Y129.972
G1 X143.674Y129.632
G1 X143.918Y129.336
G1 X144.214Y129.092
G1 X144.554Y128.907
G1 X144.929Y128.791
G1 X145.332Y128.750
G1 X148.832Y128.750
G1 X149.235Y128.791
G1 X149.610Y128.907
G1 X149.950Y129.092
G1 X150.246Y129.336
G1 X150.490Y129.632
G1 X150.675Y129.972
G1 X150.791Y130.347
G1 X150.832Y130.750
G1 X150.832Y149.250
G1 X150.791Y149.653
G1 X150.675Y150.028
G1 X150.490Y150.368
G1 X150.246Y150.664
G1 X149.950Y150.908
G1 X149.610Y151.093
G1 X149.235Y151.209
G1 X148.832Y151.250
G1 X145.332Y151.250
G1 X144.929Y151.209
G1 X144.554Y151.093
G1 X144.214Y150.908
G1 X143.918Y150.664
G1 X143.674Y150.368
G1 X143.489Y150.028
G1 X143.373Y149.653
G1 X143.332Y149.250
G0 X56.584Y130.750
; Layer C00
G1 X56.584Y149.250S300F2000
G1 X56.543Y149.653
G1 X56.427Y150.028
G1 X56.242Y150.368
G1 X55.998Y150.664
G1 X55.702Y150.908
G1 X55.362Y151.093
G1 X54.987Y151.209
G1 X54.584Y151.250
G1 X51.084Y151.250
G1 X50.681Y151.209
G1 X50.306Y151.093
G1 X49.966Y150.908
G1 X49.670Y150.664
G1 X49.426Y150.368
G1 X49.241Y150.028
G1 X49.125Y149.653
G1 X49.084Y149.250
G1 X49.084Y130.750
G1 X49.125Y130.347
G1 X49.241Y129.972
G1 X49.426Y129.632
G1 X49.670Y129.336
G1 X49.966Y129.092
G1 X50.306Y128.907
G1 X50.681Y128.791
G1 X51.084Y128.750
G1 X54.584Y128.750
G1 X54.987Y128.791
G1 X55.362Y128.907
G1 X55.702Y129.092
G1 X55.998Y129.336
G1 X56.242Y129.632
G1 X56.427Y129.972
G1 X56.543Y130.347
G1 X56.584Y130.750
G0 X56.584Y130.750
G1 X56.584Y149.250S300F2000
G1 X56.543Y149.653
G1 X56.427Y150.028
G1 X56.242Y150.368
G1 X55.998Y150.664
G1 X55.702Y150.908
G1 X55.362Y151.093
G1 X54.987Y151.209
G1 X54.584Y151.250
G1 X51.084Y151.250
G1 X50.681Y151.209
G1 X50.306Y151.093
G1 X49.966Y150.908
G1 X49.670Y150.664
G1 X49.426Y150.368
G1 X49.241Y150.028
G1 X49.125Y149.653
G1 X49.084Y149.250
G1 X49.084Y130.750
G1 X49.125Y130.347
G1 X49.241Y129.972
G1 X49.426Y129.632
G1 X49.670Y129.336
G1 X49.966Y129.092
G1 X50.306Y128.907
G1 X50.681Y128.791
G1 X51.084Y128.750
G1 X54.584Y128.750
G1 X54.987Y128.791
G1 X55.362Y128.907
G1 X55.702Y129.092
G1 X55.998Y129.336
G1 X56.242Y129.632
G1 X56.427Y129.972
G1 X56.543Y130.347
G1 X56.584Y130.750
G0 X80.500Y149.250
; Layer C00
G1 X80.500Y130.750S300F2000
G1 X80.541Y130.347
G1 X80.657Y129.972
G1 X80.842Y129.632
G1 X81.086Y129.336
G1 X81.382Y129.092
G1 X81.722Y128.907
G1 X82.097Y128.791
G1 X82.500Y128.750
G1 X86.000Y128.750
G1 X86.403Y128.791
G1 X86.778Y128.907
G1 X87.118Y129.092
G1 X87.414Y129.336
G1 X87.658Y129.632
G1 X87.843Y129.972
G1 X87.959Y130.347
G1 X88.000Y130.750
G1 X88.000Y149.250
G1 X87.959Y149.653
G1 X87.843Y150.028
G1 X87.658Y150.368
G1 X87.414Y150.664
G1 X87.118Y150.908
G1 X86.778Y151.093
G1 X86.403Y151.209
G1 X86.000Y151.250
G1 X82.500Y151.250
G1 X82.097Y151.209
G1 X81.722Y151.093
G1 X81.382Y150.908
G1 X81.086Y150.664
G1 X80.842Y150.368
G1 X80.657Y150.028
G1 X80.541Y149.653
G1 X80.500Y149.250
G0 X80.500Y149.250
G1 X80.500Y130.750S300F2000
G1 X80.541Y130.347
G1 X80.657Y129.972
G1 X80.842Y129.632
G1 X81.086Y129.336
G1 X81.382Y129.092
G1 X81.722Y128.907
G1 X82.097Y128.791
G1 X82.500Y128.750
G1 X86.000Y128.750
G1 X86.403Y128.791
G1 X86.778Y128.907
G1 X87.118Y129.092
G1 X87.414Y129.336
G1 X87.658Y129.632
G1 X87.843Y129.972
G1 X87.959Y130.347
G1 X88.000Y130.750
G1 X88.000Y149.250
G1 X87.959Y149.653
G1 X87.843Y150.028
G1 X87.658Y150.368
G1 X87.414Y150.664
G1 X87.118Y150.908
G1 X86.778Y151.093
G1 X86.403Y151.209
G1 X86.000Y151.250
G1 X82.500Y151.250
G1 X82.097Y151.209
G1 X81.722Y151.093
G1 X81.382Y150.908
G1 X81.086Y150.664
G1 X80.842Y150.368
G1 X80.657Y150.028
G1 X80.541Y149.653
G1 X80.500Y149.250
G0 X143.332Y64.750
; Layer C00
G1 X143.332Y46.250S300F2000
G1 X143.373Y45.847
G1 X143.489Y45.472
G1 X143.674Y45.132
G1 X143.918Y44.836
G1 X144.214Y44.592
G1 X144.554Y44.407
G1 X144.929Y44.291
G1 X145.332Y44.250
G1 X148.832Y44.250
G1 X149.235Y44.291
G1 X149.610Y44.407
G1 X149.950Y44.592
G1 X150.246Y44.836
G1 X150.490Y45.132
G1 X150.675Y45.472
G1 X150.791Y45.847
G1 X150.832Y46.250
G1 X150.832Y64.750
G1 X150.791Y65.153
G1 X150.675Y65.528
G1 X150.490Y65.868
G1 X150.246Y66.164
G1 X149.950Y66.408
G1 X149.610Y66.593
G1 X149.235Y66.709
G1 X148.832Y66.750
G1 X145.332Y66.750
G1 X144.929Y66.709
G1 X144.554Y66.593
G1 X144.214Y66.408
G1 X143.918Y66.164
G1 X143.674Y65.868
G1 X143.489Y65.528
G1 X143.373Y65.153
G1 X143.332Y64.750
G0 X143.332Y64.750
G1 X143.332Y46.250S300F2000
G1 X143.373Y45.847
G1 X143.489Y45.472
G1 X143.674Y45.132
G1 X143.918Y44.836
G1 X144.214Y44.592
G1 X144.554Y44.407
G1 X144.929Y44.291
G1 X145.332Y44.250
G1 X148.832Y44.250
G1 X149.235Y44.291
G1 X149.610Y44.407
G1 X149.950Y44.592
G1 X150.246Y44.836
G1 X150.490Y45.132
G1 X150.675Y45.472
G1 X150.791Y45.847
G1 X150.832Y46.250
G1 X150.832Y64.750
G1 X150.791Y65.153
G1 X150.675Y65.528
G1 X150.490Y65.868
G1 X150.246Y66.164
G1 X149.950Y66.408
G1 X149.610Y66.593
G1 X149.235Y66.709
G1 X148.832Y66.750
G1 X145.332Y66.750
G1 X144.929Y66.709
G1 X144.554Y66.593
G1 X144.214Y66.408
G1 X143.918Y66.164
G1 X143.674Y65.868
G1 X143.489Y65.528
G1 X143.373Y65.153
G1 X143.332Y64.750
G0 X56.584Y46.250
; Layer C00
G1 X56.584Y64.750S300F2000
G1 X56.543Y65.153
G1 X56.427Y65.528
G1 X56.242Y65.868
G1 X55.998Y66.164
G1 X55.702Y66.408
G1 X55.362Y66.593
G1 X54.987Y66.709
G1 X54.584Y66.750
G1 X51.084Y66.750
G1 X50.681Y66.709
G1 X50.306Y66.593
G1 X49.966Y66.408
G1 X49.670Y66.164
G1 X49.426Y65.868
G1 X49.241Y65.528
G1 X49.125Y65.153
G1 X49.084Y64.750
G1 X49.084Y46.250
G1 X49.125Y45.847
G1 X49.241Y45.472
G1 X49.426Y45.132
G1 X49.670Y44.836
G1 X49.966Y44.592
G1 X50.306Y44.407
G1 X50.681Y44.291
G1 X51.084Y44.250
G1 X54.584Y44.250
G1 X54.987Y44.291
G1 X55.362Y44.407
G1 X55.702Y44.592
G1 X55.998Y44.836
G1 X56.242Y45.132
G1 X56.427Y45.472
G1 X56.543Y45.847
G1 X56.584Y46.250
G0 X56.584Y46.250
G1 X56.584Y64.750S300F2000
G1 X56.543Y65.153
G1 X56.427Y65.528
G1 X56.242Y65.868
G1 X55.998Y66.164
G1 X55.702Y66.408
G1 X55.362Y66.593
G1 X54.987Y66.709
G1 X54.584Y66.750
G1 X51.084Y66.750
G1 X50.681Y66.709
G1 X50.306Y66.593
G1 X49.966Y66.408
G1 X49.670Y66.164
G1 X49.426Y65.868
G1 X49.241Y65.528
G1 X49.125Y65.153
G1 X49.084Y64.750
G1 X49.084Y46.250
G1 X49.125Y45.847
G1 X49.241Y45.472
G1 X49.426Y45.132
G1 X49.670Y44.836
G1 X49.966Y44.592
G1 X50.306Y44.407
G1 X50.681Y44.291
G1 X51.084Y44.250
G1 X54.584Y44.250
G1 X54.987Y44.291
G1 X55.362Y44.407
G1 X55.702Y44.592
G1 X55.998Y44.836
G1 X56.242Y45.132
G1 X56.427Y45.472
G1 X56.543Y45.847
G1 X56.584Y46.250
G0 X80.500Y64.750
; Layer C00
G1 X80.500Y46.250S300F2000
G1 X80.541Y45.847
G1 X80.657Y45.472
G1 X80.842Y45.132
G1 X81.086Y44.836
G1 X81.382Y44.592
G1 X81.722Y44.407
G1 X82.097Y44.291
G1 X82.500Y44.250
G1 X86.000Y44.250
G1 X86.403Y44.291
G1 X86.778Y44.407
G1 X87.118Y44.592
G1 X87.414Y44.836
G1 X87.658Y45.132
G1 X87.843Y45.472
G1 X87.959Y45.847
G1 X88.000Y46.250
G1 X88.000Y64.750
G1 X87.959Y65.153
G1 X87.843Y65.528
G1 X87.658Y65.868
G1 X87.414Y66.164
G1 X87.118Y66.408
G1 X86.778Y66.593
G1 X86.403Y66.709
G1 X86.000Y66.750
G1 X82.500Y66.750
G1 X82.097Y66.709
G1 X81.722Y66.593
G1 X81.382Y66.408
G1 X81.086Y66.164
G1 X80.842Y65.868
G1 X80.657Y65.528
G1 X80.541Y65.153
G1 X80.500Y64.750
G0 X80.500Y64.750
G1 X80.500Y46.250S300F2000
G1 X80.541Y45.847
G1 X80.657Y45.472
G1 X80.842Y45.132
G1 X81.086Y44.836
G1 X81.382Y44.592
G1 X81.722Y44.407
G1 X82.097Y44.291
G1 X82.500Y44.250
G1 X86.000Y44.250
G1 X86.403Y44.291
G1 X86.778Y44.407
G1 X87.118Y44.592
G1 X87.414Y44.836
G1 X87.658Y45.132
G1 X87.843Y45.472
G1 X87.959Y45.847
G1 X88.000Y46.250
G1 X88.000Y64.750
G1 X87.959Y65.153
G1 X87.843Y65.528
G1 X87.658Y65.868
G1 X87.414Y66.164
G1 X87.118Y66.408
G1 X86.778Y66.593
G1 X86.403Y66.709
G1 X86.000Y66.750
G1 X82.500Y66.750
G1 X82.097Y66.709
G1 X81.722Y66.593
G1 X81.382Y66.408
G1 X81.086Y66.164
G1 X80.842Y65.868
G1 X80.657Y65.528
G1 X80.541Y65.153
G1 X80.500Y64.750
G0 X119.416Y130.750
; Layer C00
G1 X119.416Y149.250S300F2000
G1 X119.375Y149.653
G1 X119.259Y150.028
G1 X119.074Y150.368
G1 X118.830Y150.664
G1 X118.534Y150.908
G1 X118.195Y151.093
G1 X117.819Y151.209
G1 X117.416Y151.250
G1 X113.916Y151.250
G1 X113.513Y151.209
G1 X113.138Y151.093
G1 X112.798Y150.908
G1 X112.502Y150.664
G1 X112.258Y150.368
G1 X112.073Y150.028
G1 X111.957Y149.653
G1 X111.916Y149.250
G1 X111.916Y130.750
G1 X111.957Y130.347
G1 X112.073Y129.972
G1 X112.258Y129.632
G1 X112.502Y129.336
G1 X112.798Y129.092
G1 X113.138Y128.907
G1 X113.513Y128.791
G1 X113.916Y128.750
G1 X117.416Y128.750
G1 X117.819Y128.791
G1 X118.195Y128.907
G1 X118.534Y129.092
G1 X118.830Y129.336
G1 X119.074Y129.632
G1 X119.259Y129.972
G1 X119.375Y130.347
G1 X119.416Y130.750
G0 X119.416Y130.750
G1 X119.416Y149.250S300F2000
G1 X119.375Y149.653
G1 X119.259Y150.028
G1 X119.074Y150.368
G1 X118.830Y150.664
G1 X118.534Y150.908
G1 X118.195Y151.093
G1 X117.819Y151.209
G1 X117.416Y151.250
G1 X113.916Y151.250
G1 X113.513Y151.209
G1 X113.138Y151.093
G1 X112.798Y150.908
G1 X112.502Y150.664
G1 X112.258Y150.368
G1 X112.073Y150.028
G1 X111.957Y149.653
G1 X111.916Y149.250
G1 X111.916Y130.750
G1 X111.957Y130.347
G1 X112.073Y129.972
G1 X112.258Y129.632
G1 X112.502Y129.336
G1 X112.798Y129.092
G1 X113.138Y128.907
G1 X113.513Y128.791
G1 X113.916Y128.750
G1 X117.416Y128.750
G1 X117.819Y128.791
G1 X118.195Y128.907
G1 X118.534Y129.092
G1 X118.830Y129.336
G1 X119.074Y129.632
G1 X119.259Y129.972
G1 X119.375Y130.347
G1 X119.416Y130.750
G0 X119.416Y46.250
; Layer C00
G1 X119.416Y64.750S300F2000
G1 X119.375Y65.153
G1 X119.259Y65.528
G1 X119.074Y65.868
G1 X118.830Y66.164
G1 X118.534Y66.408
G1 X118.195Y66.593
G1 X117.819Y66.709
G1 X117.416Y66.750
G1 X113.916Y66.750
G1 X113.513Y66.709
G1 X113.138Y66.593
G1 X112.798Y66.408
G1 X112.502Y66.164
G1 X112.258Y65.868
G1 X112.073Y65.528
G1 X111.957Y65.153
G1 X111.916Y64.750
G1 X111.916Y46.250
G1 X111.957Y45.847
G1 X112.073Y45.472
G1 X112.258Y45.132
G1 X112.502Y44.836
G1 X112.798Y44.592
G1 X113.138Y44.407
G1 X113.513Y44.291
G1 X113.916Y44.250
G1 X117.416Y44.250
G1 X117.819Y44.291
G1 X118.195Y44.407
G1 X118.534Y44.592
G1 X118.830Y44.836
G1 X119.074Y45.132
G1 X119.259Y45.472
G1 X119.375Y45.847
G1 X119.416Y46.250
G0 X119.416Y46.250
G1 X119.416Y64.750S300F2000
G1 X119.375Y65.153
G1 X119.259Y65.528
G1 X119.074Y65.868
G1 X118.830Y66.164
G1 X118.534Y66.408
G1 X118.195Y66.593
G1 X117.819Y66.709
G1 X117.416Y66.750
G1 X113.916Y66.750
G1 X113.513Y66.709
G1 X113.138Y66.593
G1 X112.798Y66.408
G1 X112.502Y66.164
G1 X112.258Y65.868
G1 X112.073Y65.528
G1 X111.957Y65.153
G1 X111.916Y64.750
G1 X111.916Y46.250
G1 X111.957Y45.847
G1 X112.073Y45.472
G1 X112.258Y45.132
G1 X112.502Y44.836
G1 X112.798Y44.592
G1 X113.138Y44.407
G1 X113.513Y44.291
G1 X113.916Y44.250
G1 X117.416Y44.250
G1 X117.819Y44.291
G1 X118.195Y44.407
G1 X118.534Y44.592
G1 X118.830Y44.836
G1 X119.074Y45.132
G1 X119.259Y45.472
G1 X119.375Y45.847
G1 X119.416Y46.250
M9
G1 S0
M5
G90
; return to user-defined finish pos
G0 X0Y0
M2